X: 36888
T: Shoe The Donkey
R: mazurka
M: 3/4
K: Dmajor
de|:fd A2 de|fd A2 de|f2 g2 f2|e4 ed|
cB A2 ed|cB A2 cd|e2 g2 f2|1 d4 de:|2 d4 FG||
|:A2d2c2|E4 EF|G2B2A2|F4 FG|
F2 E2 F2|G4 (3FGA|1 B2 A2 G2|F4 FG:|2 B2 A2 c2|d6||

